X: 4395
T: GALOPADE
R: march
%R: march
B: James Kerr "Merry Melodies" v.4 p.43 #395
Z: 2016 John Chambers <jc:trillian.mit.edu>
M: 2/4
L: 1/8
K: D
d |\
cBAG | FEDd | cegb | (b2a)d |\
cBAG | FEDc | Bdca | d3 :: d |\
BGEc | AFDd | BGEc | AFDd |\
cBAG | FEDF | GBEc | d3 :|

%%sep 1 1 500
%%sep 1 1 500

